X:207
T:The Royal Irish Quick Step
O:No 207  Page 102 William Clarke of Feltwell
M:9/8
L:1/8
N:Change 3rd note in bars A4 and B4 from crotchet (in m.s.) to quaver.
K:D
A|F2D DED AFD|G2E EFEe2g|f2d dfd ecA|(B/c/d)B AGFE2::g|f2d dfd ecA|f2d{fg}a2fe2g|f2d dfd ecA|(B/c/d)B AGFE2:|

